assets/images/about/el-1.svg

<svg width="37" height="32" viewBox="0 0 37 32" fill="none" xmlns="http://www.w3.org/2000/svg">
<path d="M35.8243 11.0863C35.715 11.0298 35.58 11.0286 35.4693 11.0825L23.1429 17.1002V11.3568C23.1429 11.2482 23.0786 11.1472 22.9736 11.0901C22.8693 11.0323 22.7364 11.0273 22.6264 11.0763L8.85714 17.1259V1.31384C8.85714 1.1406 8.69714 1 8.5 1H1.35714C1.16 1 1 1.1406 1 1.31384V31.4428C1 31.6161 1.16 31.7567 1.35714 31.7567H35.6429C35.84 31.7567 36 31.6161 36 31.4428V11.3568C36 11.2457 35.9329 11.1428 35.8243 11.0863ZM35.2857 31.129H1.71429V1.62769H8.14286V17.6337C8.14286 17.7423 8.20714 17.8434 8.31214 17.9011C8.41643 17.9576 8.54857 17.9632 8.65929 17.9143L22.4286 11.8646V17.6337C22.4286 17.7448 22.4957 17.8478 22.6043 17.9042C22.7129 17.9607 22.8479 17.9626 22.9593 17.9086L35.2857 11.8904V31.129Z" fill="#0029FF" stroke="#0029FF" stroke-width="0.4"/>
<path d="M17.072 22.3408C16.8748 22.3408 16.7148 22.4814 16.7148 22.6547V26.4209C16.7148 26.5941 16.8748 26.7347 17.072 26.7347C17.2691 26.7347 17.4291 26.5941 17.4291 26.4209V22.6547C17.4291 22.4814 17.2691 22.3408 17.072 22.3408Z" fill="#0029FF" stroke="#0029FF" stroke-width="0.4"/>
<path d="M28.5017 26.7347C28.6988 26.7347 28.8588 26.5941 28.8588 26.4209V22.6547C28.8588 22.4814 28.6988 22.3408 28.5017 22.3408C28.3045 22.3408 28.1445 22.4814 28.1445 22.6547V26.4209C28.1445 26.5941 28.3045 26.7347 28.5017 26.7347Z" fill="#0029FF" stroke="#0029FF" stroke-width="0.4"/>
<path d="M11.3571 22.3408C11.16 22.3408 11 22.4814 11 22.6547V26.4209C11 26.5941 11.16 26.7347 11.3571 26.7347C11.5543 26.7347 11.7143 26.5941 11.7143 26.4209V22.6547C11.7143 22.4814 11.5543 22.3408 11.3571 22.3408Z" fill="#0029FF" stroke="#0029FF" stroke-width="0.4"/>
<path d="M22.4297 22.6547V26.4209C22.4297 26.5941 22.5897 26.7347 22.7868 26.7347C22.984 26.7347 23.144 26.5941 23.144 26.4209V22.6547C23.144 22.4814 22.984 22.3408 22.7868 22.3408C22.5897 22.3408 22.4297 22.4814 22.4297 22.6547Z" fill="#0029FF" stroke="#0029FF" stroke-width="0.4"/>
</svg>

<svg width="37" height="32" fill="none" xmlns="http://www.w3.org/2000/svg"><path d="M35.824 11.086a.401.401 0 00-.355-.004L23.143 17.1v-5.743a.308.308 0 00-.17-.267.396.396 0 00-.347-.014l-13.769 6.05V1.314C8.857 1.14 8.697 1 8.5 1H1.357C1.16 1 1 1.14 1 1.314v30.129c0 .173.16.314.357.314h34.286c.197 0 .357-.14.357-.314V11.357a.31.31 0 00-.176-.27zm-.538 20.043H1.714V1.628h6.429v16.006c0 .108.064.21.17.267a.4.4 0 00.346.013l13.77-6.05v5.77a.31.31 0 00.175.27.4.4 0 00.355.005l12.327-6.019v19.24z" fill="#0029FF" stroke="#0029FF" stroke-width=".4"/><path d="M17.072 22.34c-.197 0-.357.141-.357.315v3.766c0 .173.16.314.357.314.197 0 .357-.14.357-.314v-3.766c0-.174-.16-.314-.357-.314zm11.43 4.395c.197 0 .357-.14.357-.314v-3.766c0-.174-.16-.314-.357-.314-.197 0-.357.14-.357.314v3.766c0 .173.16.314.357.314zM11.357 22.34c-.197 0-.357.141-.357.315v3.766c0 .173.16.314.357.314.197 0 .357-.14.357-.314v-3.766c0-.174-.16-.314-.357-.314zm11.073.315v3.766c0 .173.16.314.357.314.197 0 .357-.14.357-.314v-3.766c0-.174-.16-.314-.357-.314-.197 0-.357.14-.357.314z" fill="#0029FF" stroke="#0029FF" stroke-width=".4"/></svg>
